svgs/regular/temperature-three-quarters.svg

<svg xmlns="http://www.w3.org/2000/svg" viewBox="0 0 320 512"><!-- Font Awesome Pro 6.0.0-alpha2 by @fontawesome - https://fontawesome.com License - https://fontawesome.com/license (Commercial License) --><path d="M272 112C272 50.125 221.875 0 160 0S48 50.125 48 112V278.5C28.25 303.125 16 334 16 368C16 447.5 80.5 512 160 512S304 447.5 304 368C304 334 291.75 303.125 272 278.5V112ZM160 464C107.125 464 64 420.875 64 368C64 341 75.75 320.75 85.5 308.5L96 295.375V112C96 76.75 124.75 48 160 48S224 76.75 224 112V295.25L234.5 308.375C244.25 320.75 256 341 256 368C256 420.875 212.875 464 160 464ZM176 322.875V160C176 151.25 168.75 144 160 144S144 151.25 144 160V322.875C125.375 329.5 112 347.125 112 368C112 394.5 133.5 416 160 416S208 394.5 208 368C208 347.125 194.625 329.5 176 322.875Z"/></svg>

<svg xmlns="http://www.w3.org/2000/svg" viewBox="0 0 320 512"><!--! Font Awesome Pro 6.0.0-alpha3 by @fontawesome - https://fontawesome.com License - https://fontawesome.com/license (Commercial License) --><path d="M272 112c0-61.88-50.12-112-111.1-112S48 50.13 48 112v166.5c-19.75 24.62-32 55.5-32 89.5c0 79.5 64.5 143.1 144 143.1S304 447.5 304 368c0-33.1-12.25-64.88-32-89.5V112zM160 464c-52.88 0-96-43.13-96-96c0-27 11.75-47.25 21.5-59.5L96 295.4V112c0-35.25 28.75-64 64-64s64 28.75 64 64v183.2l10.5 13.13C244.3 320.8 256 341 256 368C256 420.9 212.9 464 160 464zM176 322.9V160c0-8.75-7.25-16-16-16s-16 7.25-16 16v162.9c-18.62 6.625-32 24.25-32 45.13c0 26.5 21.5 48 48 48s48-21.5 48-48C208 347.1 194.6 329.5 176 322.9z"/></svg>
